src/_assets/_icons/_figma/icon-sun-circle.svg

<svg width="24" height="24" fill="none" xmlns="http://www.w3.org/2000/svg"><path d="M19.831 15.279v.002a8.754 8.754 0 0 1-1.837 2.713 8.588 8.588 0 0 1-2.71 1.84A8.2 8.2 0 0 1 12 20.5a8.2 8.2 0 0 1-3.286-.668l11.118-4.553zm0 0a8.371 8.371 0 0 0 0-6.558m0 6.558V8.72m0 .002V8.72m0 0a8.732 8.732 0 0 0-4.555-4.553M19.83 8.72l-4.554-4.553m0 0l-.004-.001m.004.001l-.004-.001m0 0a8.423 8.423 0 0 0-6.559 0m6.56 0h-6.56m0 0a8.517 8.517 0 0 0-2.711 1.84A8.778 8.778 0 0 0 4.17 8.717m4.542-4.552L4.17 8.717m0 0v.002m0-.002v.002m0 0a8.372 8.372 0 0 0 0 6.558m0-6.558v6.558m0 0v.002m0-.002v.002m0 0a8.753 8.753 0 0 0 1.838 2.713M4.17 15.279l1.837 2.713m0 0a8.613 8.613 0 0 0 2.705 1.84l-2.705-1.84z" fill="#0284C7" stroke="#FAFAFA"/><path d="M12.009 14.478a2.366 2.366 0 0 1-1.239-.337 2.562 2.562 0 0 1-.903-.901 2.448 2.448 0 0 1 0-2.48c.22-.371.53-.681.903-.9a2.436 2.436 0 0 1 2.473 0c.37.22.678.53.897.9a2.448 2.448 0 0 1 0 2.48 2.58 2.58 0 0 1-.897.901c-.372.225-.8.341-1.234.337zm-3.6 1.11a.556.556 0 0 1-.158-.405.528.528 0 0 1 .158-.388l.674-.664a.509.509 0 0 1 .388-.158.537.537 0 0 1 .526.345c.027.07.04.144.038.219a.501.501 0 0 1-.158.382l-.674.674a.513.513 0 0 1-.386.154.589.589 0 0 1-.408-.158zm7.187-7.186a.56.56 0 0 1 .16.406.527.527 0 0 1-.16.392l-.664.663a.55.55 0 1 1-.781-.773l.663-.684a.5.5 0 0 1 .382-.159.562.562 0 0 1 .4.155zm0 7.197a.557.557 0 0 1-.406.158.525.525 0 0 1-.386-.158l-.664-.674a.506.506 0 0 1-.168-.388.54.54 0 0 1 .168-.396.531.531 0 0 1 .39-.158.496.496 0 0 1 .382.158l.674.664a.542.542 0 0 1 .164.388.552.552 0 0 1-.154.406zM8.42 8.402a.552.552 0 0 1 .406-.155.528.528 0 0 1 .376.155l.674.684a.5.5 0 0 1 .158.382.533.533 0 0 1-.158.391.542.542 0 0 1-.406.169.517.517 0 0 1-.388-.169l-.674-.664a.514.514 0 0 1-.152-.391c0-.15.06-.295.164-.402zm3.59 8.683a.522.522 0 0 1-.392-.169.545.545 0 0 1-.165-.406v-.921a.552.552 0 0 1 .942-.392.522.522 0 0 1 .169.392v.921a.532.532 0 0 1-.169.406.52.52 0 0 1-.385.169zm0-10.17a.521.521 0 0 1 .385.17.533.533 0 0 1 .169.395v.922a.522.522 0 0 1-.169.392.554.554 0 0 1-.942-.392V7.48a.546.546 0 0 1 .165-.396.52.52 0 0 1 .392-.168zm-5.066 5.076a.559.559 0 0 1 .555-.554h.921a.556.556 0 0 1 0 1.11h-.921a.558.558 0 0 1-.555-.556zm10.12 0a.558.558 0 0 1-.553.556h-.922a.556.556 0 0 1 0-1.11h.914a.559.559 0 0 1 .554.554h.008z" fill="#fff"/></svg>

<?xml version="1.0" encoding="utf-8"?>
<!-- Generator: Adobe Illustrator 27.6.1, SVG Export Plug-In . SVG Version: 6.00 Build 0)  -->
<svg version="1.1" id="Layer_1" xmlns="http://www.w3.org/2000/svg" xmlns:xlink="http://www.w3.org/1999/xlink" x="0px" y="0px"
	 viewBox="0 0 24 24" style="enable-background:new 0 0 24 24;" xml:space="preserve">
<style type="text/css">
	.st0{fill:#0284C7;stroke:#FAFAFA;}
	.st1{fill:#FFFFFF;}
</style>
<path class="st0" d="M19.8,15.3L19.8,15.3c-0.4,1-1.1,1.9-1.8,2.7c-0.8,0.8-1.7,1.4-2.7,1.8c-1,0.4-2.2,0.7-3.3,0.7
	c-1.1,0-2.2-0.2-3.3-0.7L19.8,15.3L19.8,15.3z M19.8,15.3c0.9-2.1,0.9-4.5,0-6.6 M19.8,15.3V8.7 M19.8,8.7L19.8,8.7 M19.8,8.7
	c-0.9-2-2.5-3.7-4.6-4.6 M19.8,8.7l-4.6-4.6 M15.3,4.2L15.3,4.2 M15.3,4.2L15.3,4.2 M15.3,4.2c-2.1-0.9-4.5-0.9-6.6,0 M15.3,4.2H8.7
	 M8.7,4.2C7.7,4.6,6.8,5.2,6,6C5.2,6.8,4.6,7.7,4.2,8.7 M8.7,4.2L4.2,8.7 M4.2,8.7L4.2,8.7 M4.2,8.7L4.2,8.7 M4.2,8.7
	c-0.9,2.1-0.9,4.5,0,6.6 M4.2,8.7v6.6 M4.2,15.3L4.2,15.3 M4.2,15.3L4.2,15.3 M4.2,15.3c0.4,1,1.1,1.9,1.8,2.7 M4.2,15.3L6,18 M6,18
	c0.8,0.8,1.7,1.4,2.7,1.8L6,18z"/>
<path class="st1" d="M12,14.5c-0.4,0-0.9-0.1-1.2-0.3c-0.4-0.2-0.7-0.5-0.9-0.9c-0.4-0.8-0.4-1.7,0-2.5c0.2-0.4,0.5-0.7,0.9-0.9
	c0.8-0.4,1.7-0.4,2.5,0c0.4,0.2,0.7,0.5,0.9,0.9c0.4,0.8,0.4,1.7,0,2.5c-0.2,0.4-0.5,0.7-0.9,0.9C12.9,14.4,12.4,14.5,12,14.5z
	 M8.4,15.6c-0.1-0.1-0.2-0.3-0.2-0.4c0-0.1,0.1-0.3,0.2-0.4l0.7-0.7C9.2,14,9.3,14,9.5,14c0.2,0,0.4,0.1,0.5,0.3c0,0.1,0,0.1,0,0.2
	c0,0.1-0.1,0.3-0.2,0.4l-0.7,0.7c-0.1,0.1-0.2,0.2-0.4,0.2C8.7,15.7,8.5,15.7,8.4,15.6L8.4,15.6z M15.6,8.4c0.1,0.1,0.2,0.3,0.2,0.4
	c0,0.1-0.1,0.3-0.2,0.4l-0.7,0.7c-0.2,0.2-0.6,0.2-0.8,0c-0.2-0.2-0.2-0.6,0-0.8c0,0,0,0,0,0l0.7-0.7c0.1-0.1,0.2-0.2,0.4-0.2
	C15.3,8.2,15.5,8.3,15.6,8.4z M15.6,15.6c-0.1,0.1-0.3,0.2-0.4,0.2c-0.1,0-0.3-0.1-0.4-0.2l-0.7-0.7C14,14.8,14,14.7,14,14.5
	c0-0.1,0.1-0.3,0.2-0.4c0.1-0.1,0.2-0.2,0.4-0.2c0.1,0,0.3,0.1,0.4,0.2l0.7,0.7c0.1,0.1,0.2,0.2,0.2,0.4
	C15.8,15.3,15.7,15.5,15.6,15.6z M8.4,8.4c0.1-0.1,0.3-0.2,0.4-0.2c0.1,0,0.3,0.1,0.4,0.2l0.7,0.7C10,9.2,10,9.3,10,9.5
	c0,0.1-0.1,0.3-0.2,0.4C9.8,10,9.6,10,9.5,10C9.3,10,9.2,10,9.1,9.9L8.4,9.2C8.3,9.1,8.2,9,8.3,8.8C8.3,8.7,8.3,8.5,8.4,8.4z
	 M12,17.1c-0.1,0-0.3-0.1-0.4-0.2c-0.1-0.1-0.2-0.3-0.2-0.4v-0.9c0-0.3,0.2-0.6,0.6-0.6c0.1,0,0.3,0.1,0.4,0.2
	c0.1,0.1,0.2,0.2,0.2,0.4v0.9c0,0.2-0.1,0.3-0.2,0.4C12.3,17,12.2,17.1,12,17.1z M12,6.9c0.1,0,0.3,0.1,0.4,0.2
	c0.1,0.1,0.2,0.2,0.2,0.4v0.9c0,0.1-0.1,0.3-0.2,0.4c-0.2,0.2-0.6,0.2-0.8,0c-0.1-0.1-0.2-0.2-0.2-0.4V7.5c0-0.1,0.1-0.3,0.2-0.4
	C11.7,7,11.9,6.9,12,6.9L12,6.9z M6.9,12c0-0.3,0.2-0.6,0.6-0.6h0.9c0.3,0,0.5,0.3,0.5,0.6c0,0.3-0.2,0.5-0.5,0.5H7.5
	C7.2,12.5,6.9,12.3,6.9,12z M17.1,12c0,0.3-0.2,0.6-0.6,0.6h-0.9c-0.3,0-0.5-0.3-0.5-0.6c0-0.3,0.2-0.5,0.5-0.5h0.9
	C16.8,11.4,17.1,11.7,17.1,12L17.1,12L17.1,12z"/>
</svg>
